X:
T:Balfa Waltz
L:1/8
Q:1/4=120
M:3/4
K:Am
(3:2:2a2 g | "Am"(3:2:2a2 g (3:2:2e2 ^d e2 | a2 (3:2:2e2 a (3:2:2g2 e | (3age (3:2:1!slide!e3 (3edc | 
A2- (3:2:2A2 B (3:2:2c2 A | !slide!e2 !slide!e2 !slide!e2 | "E" e2- (3:2:2e2 a (3:2:2g2 e | (3age (3:2:1e3 (3edc | "Am" A4 ] 